static/assets/images/icons/upload.svg

<svg width="256" height="256" viewBox="0 0 256 256" fill="none" xmlns="http://www.w3.org/2000/svg">
<path d="M49.25 230C42.0312 230 35.8537 227.437 30.7175 222.312C25.5812 217.186 23.0087 211.017 23 203.804V177.608C23 173.897 24.26 170.789 26.78 168.283C29.3 165.777 32.415 164.519 36.125 164.51C39.835 164.502 42.9544 165.759 45.4831 168.283C48.0119 170.806 49.2675 173.915 49.25 177.608V203.804H206.75V177.608C206.75 173.897 208.01 170.789 210.53 168.283C213.05 165.777 216.165 164.519 219.875 164.51C223.585 164.502 226.704 165.759 229.233 168.283C231.762 170.806 233.017 173.915 233 177.608V203.804C233 211.008 230.432 217.177 225.295 222.312C220.159 227.446 213.977 230.009 206.75 230H49.25ZM114.875 70.8605L90.2656 95.4191C87.6406 98.0387 84.5256 99.296 80.9206 99.1913C77.3156 99.0865 74.1962 97.7199 71.5625 95.0916C69.1562 92.472 67.8962 89.4159 67.7825 85.9231C67.6687 82.4303 68.9287 79.3741 71.5625 76.7546L118.812 29.6021C120.125 28.2923 121.547 27.3667 123.078 26.8254C124.609 26.284 126.25 26.0089 128 26.0002C129.75 25.9915 131.391 26.2665 132.922 26.8254C134.453 27.3842 135.875 28.3098 137.187 29.6021L184.437 76.7546C187.062 79.3741 188.322 82.4303 188.217 85.9231C188.112 89.4159 186.852 92.472 184.437 95.0916C181.812 97.7112 178.697 99.0777 175.092 99.1913C171.487 99.3048 168.368 98.0474 165.734 95.4191L141.125 70.8605V164.51C141.125 168.222 139.865 171.334 137.345 173.849C134.825 176.364 131.71 177.617 128 177.608C124.29 177.6 121.175 176.342 118.655 173.836C116.135 171.33 114.875 168.222 114.875 164.51V70.8605Z" fill="black"/>
</svg>

<svg xmlns="http://www.w3.org/2000/svg" fill="none" viewBox="0 0 256 256"><path fill="#000" d="M49.25 230q-10.828 0-18.532-7.688-7.706-7.689-7.718-18.508v-26.196q0-5.566 3.78-9.325 3.78-3.76 9.345-3.773t9.358 3.773q3.794 3.785 3.767 9.325v26.196h157.5v-26.196q0-5.566 3.78-9.325 3.78-3.76 9.345-3.773t9.358 3.773q3.793 3.785 3.767 9.325v26.196q0 10.806-7.705 18.508-7.704 7.701-18.545 7.688zm65.625-159.14-24.61 24.56q-3.937 3.928-9.344 3.771-5.408-.157-9.359-4.1-3.609-3.928-3.78-9.168t3.78-9.168l47.25-47.153q1.97-1.964 4.266-2.777 2.297-.812 4.922-.825t4.922.825q2.297.84 4.265 2.777l47.25 47.153q3.938 3.93 3.78 9.168-.157 5.24-3.78 9.169-3.937 3.93-9.345 4.1-5.407.17-9.358-3.773l-24.609-24.558v93.649q0 5.567-3.78 9.339T128 177.608t-9.345-3.772-3.78-9.326z"/></svg>
